humanity-icon-theme/Humanity-Dark/status/22/audio-output-none-panel.svg

<?xml version="1.0" encoding="UTF-8" standalone="no"?>
<!-- Created with Inkscape (http://www.inkscape.org/) -->
<svg id="svg2" xmlns="http://www.w3.org/2000/svg" height="22" width="22" version="1.0">
 <path id="rect3612" style="color:#000000;fill:#969696" d="m13 5v0.3125l-2.688 2.6875h-2.312-1v7h1 2.312l2.688 2.688v0.312h1v-13h-1zm0 1.6875v9.625l-2.312-2.312h-0.25-2.438v-5h2.375 0.313l2.312-2.3125z"/>
</svg>

<?xml version="1.0" encoding="UTF-8" standalone="no"?>
<!-- Created with Inkscape (http://www.inkscape.org/) -->

<svg
   xmlns:svg="http://www.w3.org/2000/svg"
   xmlns="http://www.w3.org/2000/svg"
   version="1.0"
   width="22"
   height="22"
   id="svg2">
  <defs
     id="defs4" />
  <path
     d="M 13,5 13,5.3125 10.3125,8 8,8 7,8 7,15 8,15 10.3125,15 13,17.6875 13,18 14,18 14,5 13,5 z m 0,1.6875 0,9.625 L 10.6875,14 10.4375,14 8,14 8,9 10.375,9 10.6875,9 13,6.6875 z"
     id="rect3612"
     style="color:#000000;fill:#969696;fill-opacity:1;stroke:none;stroke-width:2;marker:none;visibility:visible;display:inline;overflow:visible;enable-background:accumulate" />
</svg>
